X:1
T:Juanita's Jig
M:6/8
L:1/8
C: Paul Gitlitz 1984
S:"glitchless"  tradtunes 2002-8-23
W:For an old friend and good caller.
K:G
"G"gfg "C"age | "G"dBG BdB | "D"DFA cAF | "G"DGB d^cd |
"G"~g3 "C"age | "G"dBG BdB | "D"DFA cAF | 1"G"GDB, G,ef :|2 "G"G2G GFE ||
|: "D"DFA cAF | "G"DGB d^cd | "D"DFA cBc | "G"d^cd edB |
"*G"~g3 "C"age | "G"dBG BdB | "D"DFA cAF |1 "G"G2G GFE :|2 "G"G3 |]
"*last time"g2(3ggg "C"age | "G"dBG .dzd | "D"ded cBA | "G"G2G,G,2z ||
